X:185
%%pagewidth 8in
T:The noble shirve
M:6/8
L:1/8
K:G
%%score 1 2
V:1 clef-treble
V:2 clef-bass octave=-1
[V:1](B/c/)|d2e d2d &[GB]3[FA]3|[EG(c]3[B)D]3|[CFA]2[DB] [B,G]2[DB]|[CFA]2[DG][B,G]2B/c/|
w:|||Down a-down, Hey down* a-down*
w:There* was a maid came out~of Kent, Dain-ty love,* Dain-ty love, There*
[V:2]z|G6|G6|(D3G2)G,|(D3G2)z|
[V:1][DBd]2e [DAd]2d|[EA(c]3[B)^G]3|[CA]2B [C^FA]2G|[B,G]3-[B,G]2||
w:||Down a-down, a down a
w:was a maid came out~of Kent, Dan-*ger-ouse be.*
[V:2]G3=F3|E6|A,3D3|G,3-G,2||
[V:1]!f!A/B/|[Gc]2d c2G|[Gc]2d c2G|[Gc]2[ce] [Gd]2[Ec]|[F(d]3[B)G]3|
w:There* was a maid came out of Kent, Fair pro-per, small and gent As
[V:2]z|[Ec]3-[Ec]2[GB]|[Ec]3[Ec]2[GB]|[Ec]2[ce] [Gd]2[Ec]|[DA]3[GB]3|
[V:1]c3E2F &C6|[B,(G]2A) [GB]2c|[B(d]2[BG]) [Fd]2[DB]|[CF(A]3[G)B,]2||
w:||Down a-down a-down a.
w:e\-ver on the ground* went For so* should it be...*
[V:2]A6|E6|D3D3|D3G2||

